ix/speaker_broken.svg

<svg viewBox="0 0 24 24" fill="none" xmlns="http://www.w3.org/2000/svg" height="1em" width="1em">
  <path d="M5 13.99V6C5 3 6 2 9 2H15C18 2 19 3 19 6V18C19 21 18 22 15 22H9C6 22 5 21 5 18" stroke="#292D32" stroke-width="1.5" stroke-miterlimit="10" stroke-linecap="round" stroke-linejoin="round"/>
  <path d="M12 18C13.6569 18 15 16.6569 15 15C15 13.3431 13.6569 12 12 12C10.3431 12 9 13.3431 9 15C9 16.6569 10.3431 18 12 18Z" stroke="#292D32" stroke-width="1.5" stroke-miterlimit="10" stroke-linecap="round" stroke-linejoin="round"/>
  <path d="M13.5 7.5C13.5 6.67 12.83 6 12 6C11.17 6 10.5 6.67 10.5 7.5C10.5 8.33 11.17 9 12 9" stroke="#292D32" stroke-width="1.5" stroke-miterlimit="10" stroke-linecap="round" stroke-linejoin="round"/>
</svg>

<svg viewBox="0 0 24 24" fill="none" xmlns="http://www.w3.org/2000/svg" height="1em" width="1em">
  <path d="M5 13.99V6c0-3 1-4 4-4h6c3 0 4 1 4 4v12c0 3-1 4-4 4H9c-3 0-4-1-4-4" stroke="#292D32" stroke-width="1.5" stroke-miterlimit="10" stroke-linecap="round" stroke-linejoin="round"/>
  <path d="M12 18a3 3 0 1 0 0-6 3 3 0 0 0 0 6Zm1.5-10.5c0-.83-.67-1.5-1.5-1.5s-1.5.67-1.5 1.5S11.17 9 12 9" stroke="#292D32" stroke-width="1.5" stroke-miterlimit="10" stroke-linecap="round" stroke-linejoin="round"/>
</svg>
